static/images/mobile/copyright/wikipedia-wordmark-pa.svg

<?xml version="1.0" encoding="UTF-8"?>
<svg width="120px" height="25px" viewBox="0 0 120 25" version="1.1" xmlns="http://www.w3.org/2000/svg" xmlns:xlink="http://www.w3.org/1999/xlink">
    <title>pa-wordmark</title>
    <g id="Page-1" stroke="none" stroke-width="1" fill="none" fill-rule="evenodd">
        <path d="M60.1009858,9.31954797 L60.1009858,24.1788892 L57.9658572,24.1788892 L57.9658572,20.3125751 C57.5042077,20.5818706 56.9656167,20.7982688 56.3500842,20.9617697 C55.7345516,21.1252705 55.0132243,21.2070209 54.1861024,21.2070209 C53.3974513,21.2070209 52.6713152,21.1060351 52.0076942,20.9040635 C51.3440731,20.7020918 50.7381582,20.4327963 50.1899495,20.096177 C49.6417408,19.7595576 49.1656648,19.3700409 48.7617216,18.9276268 C48.3577783,18.4852128 48.0211589,18.0139457 47.7518634,17.5138254 C48.2135129,16.6482327 48.6174561,15.7730224 48.9636932,14.8881943 C49.3099303,14.0033662 49.4830488,13.0319788 49.4830488,11.9740322 C49.4830488,11.4931474 49.4349603,11.0266891 49.3387834,10.5746574 C49.2426064,10.1226256 49.1175763,9.70425583 48.9636932,9.31954797 L44.087521,9.31954797 L44.087521,24.1788892 L41.9523924,24.1788892 L41.9523924,9.31954797 L37.8264006,9.31954797 C37.7879298,10.6660255 37.6003847,12.0076942 37.2637653,13.344554 C36.9271459,14.6814138 36.4799231,15.8499639 35.9220967,16.8502044 C36.0952152,17.273383 36.2875691,17.7638855 36.4991585,18.3217119 C36.7107478,18.8795384 36.9079106,19.4758355 37.0906468,20.1106035 C37.273383,20.7453715 37.432075,21.4089925 37.5667228,22.1014667 C37.7013705,22.7939409 37.7975475,23.486415 37.8552537,24.1788892 L35.720125,24.1788892 C35.6047127,23.1978841 35.4412118,22.2361145 35.2296225,21.2935802 C35.0180332,20.3510459 34.8064439,19.5143063 34.5948545,18.7833614 C34.325559,19.0718923 34.0129839,19.3604232 33.6571291,19.6489541 C33.3012743,19.937485 32.9021399,20.1971628 32.4597259,20.4279875 C32.0173119,20.6588122 31.5268093,20.8415484 30.9882183,20.9761962 C30.4496273,21.110844 29.8725655,21.1781678 29.2570329,21.1781678 C28.622265,21.1781678 27.9971147,21.0916086 27.3815821,20.91849 C26.7660495,20.7453715 26.2178408,20.4808848 25.736956,20.1250301 C25.2560712,19.7691753 24.8665545,19.302717 24.5684059,18.7256552 C24.2702573,18.1485934 24.121183,17.4561193 24.121183,16.6482327 C24.121183,15.9365232 24.2558307,15.3017552 24.5251262,14.7439288 C24.7944217,14.1861024 25.1598942,13.7148353 25.6215436,13.3301274 C26.0831931,12.9454196 26.6265929,12.647271 27.2517432,12.4356817 C27.8768935,12.2240923 28.5357057,12.1182977 29.2281799,12.1182977 C30.4015388,12.1182977 31.4594855,12.3827843 32.4020197,12.9117576 C33.344554,13.4407309 34.1332051,14.1380139 34.7679731,15.0036066 C35.0180332,14.2918971 35.2296225,13.4263044 35.402741,12.4068286 C35.5758596,11.3873527 35.6816542,10.3582592 35.720125,9.31954797 L21.2070209,9.31954797 L21.2070209,13.9071892 L12.7530656,13.9071892 C12.1567685,13.9071892 11.6710748,14.0562635 11.2959846,14.3544121 C10.9208944,14.6525607 10.7333494,15.0709305 10.7333494,15.6095215 C10.7333494,16.2058187 10.9305121,16.6482327 11.3248377,16.9367636 C11.7191633,17.2252945 12.2240923,17.36956 12.8396249,17.36956 L20.6876653,17.36956 L20.6876653,19.1873046 L14.3111325,19.1873046 C14.0610724,19.4950709 13.9360423,19.8990142 13.9360423,20.3991344 C13.9360423,21.1493147 14.2582352,21.7023323 14.9026208,22.0581871 C15.5470065,22.4140418 16.3789372,22.5919692 17.3984131,22.5919692 C18.129358,22.5919692 18.7977879,22.5150277 19.4037028,22.3611445 C20.0096177,22.2072614 20.5049291,22.0437605 20.8896369,21.870642 L21.6398173,23.3998557 C21.1204616,23.7268574 20.476076,23.9769175 19.7066603,24.1500361 C18.9372445,24.3231546 18.1101226,24.4097139 17.2252945,24.4097139 C16.417408,24.4097139 15.6816542,24.3279635 15.0180332,24.1644626 C14.3544121,24.0009618 13.786968,23.7557105 13.3157009,23.4287088 C12.8444338,23.1017071 12.4741524,22.6977639 12.2048569,22.2168791 C11.9355614,21.7359942 11.8009137,21.1877855 11.8009137,20.5722529 C11.8009137,20.0336619 11.916326,19.5720125 12.1471508,19.1873046 C11.1276749,19.0911277 10.2813176,18.7448906 9.60807887,18.1485934 C8.93484011,17.5522962 8.59822073,16.7059389 8.59822073,15.6095215 C8.59822073,15.0324597 8.70401539,14.5227218 8.91560471,14.0803078 C9.12719404,13.6378937 9.42053378,13.2676124 9.79562395,12.9694638 C10.1707141,12.6713152 10.6035105,12.4452994 11.094013,12.2914162 C11.5845155,12.1375331 12.1182977,12.0605915 12.6953595,12.0605915 L19.1007454,12.0605915 L19.1007454,9.31954797 L5.19355614,9.31954797 L5.19355614,24.1788892 L3.05842751,24.1788892 L3.05842751,9.31954797 L0,9.31954797 L0,7.53065641 L3.00072133,7.53065641 L3.00072133,4.50108199 C3.00072133,3.71243087 3.12575138,3.03438327 3.37581149,2.46693917 C3.6258716,1.89949507 3.96729983,1.43303679 4.40009618,1.06756432 C4.83289252,0.702091849 5.32339505,0.432796345 5.87160375,0.259677807 C6.41981245,0.0865592691 7.0016831,-1.77635684e-15 7.61721568,-1.77635684e-15 C8.27121904,-1.77635684e-15 8.88675162,0.100985814 9.46381342,0.302957442 C10.0408752,0.504929069 10.5409954,0.798268815 10.9641741,1.18297668 C11.3873527,1.56768454 11.7191633,2.04856937 11.9596057,2.62563116 C12.2000481,3.20269296 12.3202693,3.86631402 12.3202693,4.61649435 L12.3202693,5.28011541 L10.1851407,5.28011541 L10.1851407,4.58764126 C10.1851407,3.68357778 9.94469824,2.99110363 9.46381342,2.5102188 C8.98292859,2.02933397 8.37701371,1.78889156 7.64606877,1.78889156 C7.31906708,1.78889156 7.0016831,1.83698004 6.69391681,1.93315701 C6.38615052,2.02933397 6.11685501,2.19283482 5.8860303,2.42365953 C5.65520558,2.65448425 5.47246934,2.95263284 5.33782159,3.31810531 C5.20317384,3.68357778 5.13584996,4.12599182 5.13584996,4.64534744 L5.13584996,7.53065641 L41.9523924,7.53065641 L41.9523924,4.58764126 C41.9523924,3.68357778 41.71195,2.99110363 41.2310652,2.5102188 C40.7501803,2.02933397 40.1442654,1.78889156 39.4133205,1.78889156 C39.0863188,1.78889156 38.7689348,1.83698004 38.4611686,1.93315701 C38.1534023,2.02933397 37.8841068,2.19283482 37.653282,2.42365953 C37.4224573,2.65448425 37.2397211,2.95263284 37.1050733,3.31810531 C36.9704256,3.68357778 36.9031017,4.12599182 36.9031017,4.64534744 L36.9031017,5.28011541 L34.7679731,5.28011541 L34.7679731,4.50108199 C34.7679731,3.71243087 34.8930031,3.03438327 35.1430632,2.46693917 C35.3931233,1.89949507 35.7345516,1.43303679 36.1673479,1.06756432 C36.6001443,0.702091849 37.0906468,0.432796345 37.6388555,0.259677807 C38.1870642,0.0865592691 38.7689348,-1.77635684e-15 39.3844674,-1.77635684e-15 C40.0384708,-1.77635684e-15 40.6540034,0.100985814 41.2310652,0.302957442 C41.808127,0.504929069 42.3082472,0.798268815 42.7314258,1.18297668 C43.1546045,1.56768454 43.486415,2.04856937 43.7268574,2.62563116 C43.9672998,3.20269296 44.087521,3.86631402 44.087521,4.61649435 L44.087521,7.53065641 L50.2909353,7.53065641 C50.714114,8.26160135 51.0411157,9.00697283 51.2719404,9.76677086 C51.5027651,10.5265689 51.6181774,11.2623227 51.6181774,11.9740322 C51.6181774,13.1089204 51.4835297,14.0995432 51.2142342,14.9459005 C50.9449387,15.7922578 50.5987016,16.6289974 50.175523,17.4561193 C50.5794662,18.0524164 51.1324838,18.5188747 51.8345756,18.8554941 C52.5366675,19.1921135 53.3397451,19.3604232 54.2438086,19.3604232 C55.0901659,19.3604232 55.8114931,19.2450108 56.4077903,19.0141861 C57.0040875,18.7833614 57.5234431,18.4755951 57.9658572,18.0908872 L57.9658572,7.53065641 L65.0637172,7.53065641 L65.0637172,4.58764126 C65.0637172,3.68357778 64.8232748,2.99110363 64.34239,2.5102188 C63.8615052,2.02933397 63.2555903,1.78889156 62.5246453,1.78889156 C62.1976437,1.78889156 61.8802597,1.83698004 61.5724934,1.93315701 C61.2647271,2.02933397 60.9954316,2.19283482 60.7646069,2.42365953 C60.5337822,2.65448425 60.3510459,2.95263284 60.2163982,3.31810531 C60.0817504,3.68357778 60.0144265,4.12599182 60.0144265,4.64534744 L60.0144265,5.28011541 L57.8792979,5.28011541 L57.8792979,4.50108199 C57.8792979,3.71243087 58.004328,3.03438327 58.2543881,2.46693917 C58.5044482,1.89949507 58.8458764,1.43303679 59.2786728,1.06756432 C59.7114691,0.702091849 60.2019716,0.432796345 60.7501803,0.259677807 C61.298389,0.0865592691 61.8802597,-1.77635684e-15 62.4957923,-1.77635684e-15 C63.1497956,-1.77635684e-15 63.7653282,0.100985814 64.34239,0.302957442 C64.9194518,0.504929069 65.419572,0.798268815 65.8427507,1.18297668 C66.2659293,1.56768454 66.5977398,2.04856937 66.8381823,2.62563116 C67.0786247,3.20269296 67.1988459,3.86631402 67.1988459,4.61649435 L67.1988459,7.53065641 L87.6268334,7.53065641 L87.6268334,4.58764126 C87.6268334,3.68357778 87.386391,2.99110363 86.9055061,2.5102188 C86.4246213,2.02933397 85.8187064,1.78889156 85.0877615,1.78889156 C84.7607598,1.78889156 84.4433758,1.83698004 84.1356095,1.93315701 C83.8278432,2.02933397 83.5585477,2.19283482 83.327723,2.42365953 C83.0968983,2.65448425 82.9141621,2.95263284 82.7795143,3.31810531 C82.6448666,3.68357778 82.5775427,4.12599182 82.5775427,4.64534744 L82.5775427,5.28011541 L80.442414,5.28011541 L80.442414,4.50108199 C80.442414,3.71243087 80.5674441,3.03438327 80.8175042,2.46693917 C81.0675643,1.89949507 81.4089925,1.43303679 81.8417889,1.06756432 C82.2745852,0.702091849 82.7650878,0.432796345 83.3132965,0.259677807 C83.8615052,0.0865592691 84.4433758,-1.77635684e-15 85.0589084,-1.77635684e-15 C85.7129118,-1.77635684e-15 86.3284443,0.100985814 86.9055061,0.302957442 C87.4825679,0.504929069 87.9826881,0.798268815 88.4058668,1.18297668 C88.8290454,1.56768454 89.160856,2.04856937 89.4012984,2.62563116 C89.6417408,3.20269296 89.761962,3.86631402 89.761962,4.61649435 L89.761962,7.53065641 L96.1096417,7.53065641 C96.3212311,8.20389517 96.5087761,8.97331089 96.672277,9.83890358 C96.8357778,10.7044963 96.9656167,11.5412359 97.0617937,12.3491224 C97.7350325,11.7720606 98.4707862,11.156528 99.2690551,10.5025246 C100.067324,9.84852128 100.79346,9.30993027 101.447463,8.88675162 L103.063236,9.37725415 C103.140178,9.7811974 103.217119,10.2572734 103.294061,10.8054821 C103.371003,11.3536908 103.443135,11.916326 103.510459,12.4933878 C103.577783,13.0704496 103.635489,13.6330849 103.683578,14.1812936 C103.731666,14.7295023 103.765328,15.2055783 103.784564,15.6095215 C104.496273,15.0516951 105.222409,14.5131041 105.962972,13.9937485 C106.703535,13.4743929 107.381582,12.9935081 107.997115,12.551094 L107.997115,7.53065641 L120,7.53065641 L120,9.31954797 L117.085838,9.31954797 L117.085838,17.5138254 L114.950709,17.5138254 L114.950709,9.31954797 L110.132243,9.31954797 L110.132243,24.1788892 L107.997115,24.1788892 L107.997115,14.8881943 C107.323876,15.3498437 106.636211,15.8451551 105.934119,16.3741284 C105.232027,16.9031017 104.477038,17.4753547 103.669151,18.0908872 C103.496033,19.5143063 103.183458,20.538591 102.731426,21.1637413 C102.279394,21.7888916 101.7937,22.1014667 101.274345,22.1014667 C100.908872,22.1014667 100.596297,22.0052897 100.336619,21.8129358 C100.076942,21.6205819 99.8990142,21.3416687 99.8028372,20.9761962 L101.649435,16.2731426 C101.6302,15.3690791 101.58692,14.5131041 101.519596,13.7052176 C101.452272,12.8973311 101.360904,12.0894446 101.245492,11.2815581 C100.572253,11.7432075 99.9086319,12.2817985 99.2546285,12.8973311 C98.6006252,13.5128637 97.9658572,14.0899255 97.3503246,14.6285165 C97.2156768,16.2635249 96.9223371,17.4897812 96.4703054,18.3072854 C96.0182736,19.1247896 95.4748738,19.5335417 94.8401058,19.5335417 C94.4746333,19.5335417 94.1620582,19.4373648 93.9023804,19.2450108 C93.6427026,19.0526569 93.4647752,18.7737437 93.3685982,18.4082712 L95.0420774,14.1380139 C95.0420774,13.849483 95.0180332,13.4936283 94.9699447,13.0704496 C94.9218562,12.647271 94.8689589,12.2096658 94.8112527,11.757634 C94.7535465,11.3056023 94.6910315,10.8631883 94.6237076,10.4303919 C94.5563837,9.99759558 94.484251,9.62731426 94.4073094,9.31954797 L89.761962,9.31954797 L89.761962,24.1788892 L87.6268334,24.1788892 L87.6268334,9.31954797 L83.5008415,9.31954797 C83.4431354,10.4159654 83.1882664,11.4162058 82.7362347,12.3202693 C82.2842029,13.2243328 81.7792739,13.9360423 81.2214475,14.4553979 C81.9908632,14.9170474 82.5967781,15.5133446 83.0391921,16.2442895 C83.4816062,16.9752344 83.7028132,17.8504448 83.7028132,18.8699207 C83.7028132,19.7355133 83.5200769,20.5097379 83.1546045,21.1925944 C82.789132,21.8754508 82.2890118,22.4525126 81.6542438,22.9237798 C81.0194758,23.3950469 80.2692955,23.7557105 79.4037028,24.0057706 C78.5381101,24.2558307 77.6051936,24.3808608 76.6049531,24.3808608 C75.7585958,24.3808608 74.9747535,24.2894927 74.2534263,24.1067564 C73.5320991,23.9240202 72.9021399,23.6691512 72.3635489,23.3421496 C71.8249579,23.0151479 71.4017793,22.6256312 71.094013,22.1735994 C70.7862467,21.7215677 70.6323635,21.2166386 70.6323635,20.6588122 C70.6323635,19.8316903 70.935321,19.1344073 71.5412359,18.5669632 C72.1471508,17.9995191 72.9694638,17.7157971 74.008175,17.7157971 C74.7775908,17.7157971 75.4748738,17.8264006 76.100024,18.0476076 C76.7251743,18.2688146 77.2926184,18.5621544 77.8023563,18.9276268 C78.3120943,19.2930993 78.764126,19.7018514 79.1584516,20.1538831 C79.5527771,20.6059149 79.8942053,21.0627555 80.1827362,21.5244049 C80.6251503,21.1974032 80.9665785,20.8030777 81.2070209,20.3414282 C81.4474633,19.8797788 81.5676845,19.3411878 81.5676845,18.7256552 C81.5676845,18.3217119 81.5003607,17.9418129 81.3657129,17.5859582 C81.2310652,17.2301034 81.0531378,16.9079106 80.8319308,16.6193797 C80.6107237,16.3308488 80.3654725,16.0807887 80.096177,15.8691993 C79.8268815,15.65761 79.5479683,15.5037269 79.2594374,15.4075499 C78.1437846,15.7153162 76.893484,15.8691993 75.5085357,15.8691993 C74.4313537,15.8691993 73.5898052,15.7585958 72.9838904,15.5373888 C72.3779755,15.3161818 72.075018,14.9170474 72.075018,14.3399856 C72.075018,14.1283962 72.10868,13.9264246 72.1760038,13.7340707 C72.2433277,13.5417168 72.3250781,13.3685982 72.4212551,13.2147151 L79.8653522,13.2147151 C80.2500601,12.772301 80.5818706,12.2000481 80.8607838,11.4979562 C81.139697,10.7958644 81.3080067,10.0697283 81.3657129,9.31954797 L67.1988459,9.31954797 L67.1988459,24.1788892 L65.0637172,24.1788892 L65.0637172,9.31954797 L60.1009858,9.31954797 Z M74.2101467,19.4181294 C73.7100264,19.4181294 73.344554,19.5431594 73.1137293,19.7932195 C72.8829045,20.0432796 72.7674922,20.3221928 72.7674922,20.6299591 C72.7674922,21.1685501 73.1137293,21.6253907 73.8062034,22.0004809 C74.4986776,22.3755711 75.4123587,22.5631161 76.5472469,22.5631161 C77.2781919,22.5631161 77.9610483,22.4765569 78.5958163,22.3034383 C78.3265208,21.9379659 78.0427987,21.5821111 77.7446502,21.235874 C77.4465016,20.8896369 77.1194999,20.5818706 76.7636451,20.3125751 C76.4077903,20.0432796 76.0182736,19.8268815 75.595095,19.6633806 C75.1719163,19.4998798 74.7102669,19.4181294 74.2101467,19.4181294 Z M29.4301515,13.9648954 C28.8723251,13.9648954 28.3962491,14.041837 28.0019235,14.1957201 C27.607598,14.3496033 27.2805963,14.5515749 27.0209185,14.801635 C26.7612407,15.0516951 26.5688868,15.3354172 26.4438567,15.6528012 C26.3188266,15.9701851 26.2563116,16.3019957 26.2563116,16.6482327 C26.2563116,17.5138254 26.5448425,18.1774465 27.1219043,18.6390959 C27.6989661,19.1007454 28.4876172,19.3315701 29.4878577,19.3315701 C30.0072133,19.3315701 30.4929069,19.2594374 30.9449387,19.1151719 C31.3969704,18.9709065 31.8105314,18.7785525 32.1856215,18.5381101 C32.5607117,18.2976677 32.8925222,18.0283722 33.1810531,17.7302236 C33.469584,17.432075 33.7196441,17.1291176 33.9312335,16.8213513 C33.3541717,15.8403462 32.6713152,15.119019 31.8826641,14.6573696 C31.094013,14.1957201 30.2765088,13.9648954 29.4301515,13.9648954 Z" id="pa-wordmark" fill="#000000" fill-rule="nonzero"></path>
    </g>
</svg>

<svg xmlns="http://www.w3.org/2000/svg" width="120" height="25"><path fill="#000" fill-rule="nonzero" d="M60.101 9.32v14.859h-2.135v-3.866c-.462.269-1 .485-1.616.649-.615.163-1.337.245-2.164.245a7.454 7.454 0 0 1-2.178-.303 7.791 7.791 0 0 1-1.818-.808 6.583 6.583 0 0 1-1.428-1.168 7.057 7.057 0 0 1-1.01-1.414 24.72 24.72 0 0 0 1.212-2.626c.346-.885.519-1.856.519-2.914 0-.48-.048-.947-.144-1.4a7.68 7.68 0 0 0-.375-1.254h-4.876v14.859h-2.136V9.319h-4.126a18.617 18.617 0 0 1-.562 4.026c-.337 1.336-.784 2.505-1.342 3.505.173.423.366.914.577 1.472a22.95 22.95 0 0 1 1.068 3.78c.134.692.23 1.384.288 2.077H35.72a28.214 28.214 0 0 0-.49-2.885 42.938 42.938 0 0 0-.635-2.51c-.27.288-.582.576-.938.865a7.132 7.132 0 0 1-1.197.779c-.443.23-.933.414-1.472.548a7.12 7.12 0 0 1-1.731.202c-.635 0-1.26-.086-1.875-.26a5.022 5.022 0 0 1-1.645-.793 3.98 3.98 0 0 1-1.169-1.4c-.298-.576-.447-1.269-.447-2.077 0-.711.135-1.346.404-1.904.27-.558.635-1.03 1.097-1.414a5.042 5.042 0 0 1 1.63-.894 6.123 6.123 0 0 1 1.976-.318c1.174 0 2.231.265 3.174.794a7.375 7.375 0 0 1 2.366 2.092c.25-.712.462-1.578.635-2.597a23.65 23.65 0 0 0 .317-3.087H21.207v4.587h-8.454c-.596 0-1.082.15-1.457.447-.375.299-.563.717-.563 1.256 0 .596.198 1.038.592 1.327.394.288.9.433 1.515.433h7.848v1.817H14.31c-.25.308-.375.712-.375 1.212 0 .75.322 1.303.967 1.66.644.355 1.476.533 2.495.533.731 0 1.4-.077 2.006-.23a9.244 9.244 0 0 0 1.486-.491l.75 1.529c-.52.327-1.164.577-1.933.75-.77.173-1.597.26-2.482.26a9.23 9.23 0 0 1-2.207-.246c-.664-.163-1.231-.408-1.702-.735a3.61 3.61 0 0 1-1.111-1.212c-.27-.481-.404-1.03-.404-1.645 0-.538.115-1 .346-1.385-1.02-.096-1.866-.442-2.539-1.038-.673-.597-1.01-1.443-1.01-2.54 0-.577.106-1.086.318-1.529.211-.442.505-.812.88-1.11a3.977 3.977 0 0 1 1.298-.679 5.325 5.325 0 0 1 1.601-.23h6.406V9.32H5.194v14.859H3.058V9.319H0V7.532h3V4.5c0-.789.126-1.467.376-2.034a3.806 3.806 0 0 1 1.024-1.4A4.233 4.233 0 0 1 5.872.26 5.764 5.764 0 0 1 7.617 0c.654 0 1.27.101 1.847.303a4.326 4.326 0 0 1 1.5.88c.423.385.755.866.996 1.443.24.577.36 1.24.36 1.99v.664h-2.135v-.692c0-.904-.24-1.597-.721-2.078-.481-.48-1.087-.721-1.818-.721-.327 0-.644.048-.952.144a1.95 1.95 0 0 0-.808.49c-.23.231-.414.53-.548.895-.135.366-.202.808-.202 1.327v2.886h36.816V4.588c0-.904-.24-1.597-.72-2.078-.482-.48-1.088-.721-1.819-.721-.327 0-.644.048-.952.144a1.95 1.95 0 0 0-.808.49c-.23.231-.413.53-.548.895-.135.366-.202.808-.202 1.327v.635h-2.135v-.779c0-.789.125-1.467.375-2.034a3.806 3.806 0 0 1 1.024-1.4A4.233 4.233 0 0 1 37.64.26 5.764 5.764 0 0 1 39.384 0c.654 0 1.27.101 1.847.303a4.326 4.326 0 0 1 1.5.88c.424.385.755.866.996 1.443.24.577.36 1.24.36 1.99v2.915h6.204c.423.73.75 1.476.98 2.236.232.76.347 1.495.347 2.207 0 1.135-.134 2.126-.404 2.972-.27.846-.615 1.683-1.038 2.51.403.596.956 1.063 1.659 1.4.702.336 1.505.504 2.409.504.846 0 1.567-.115 2.164-.346a5.223 5.223 0 0 0 1.558-.923V7.53h7.098V4.588c0-.904-.24-1.597-.722-2.078-.48-.48-1.086-.721-1.817-.721-.327 0-.645.048-.953.144a1.95 1.95 0 0 0-.807.49c-.231.231-.414.53-.549.895-.134.366-.202.808-.202 1.327v.635H57.88v-.779c0-.789.125-1.467.375-2.034a3.806 3.806 0 0 1 1.025-1.4A4.233 4.233 0 0 1 60.75.26 5.764 5.764 0 0 1 62.496 0c.654 0 1.27.101 1.846.303a4.326 4.326 0 0 1 1.5.88c.424.385.756.866.996 1.443.24.577.36 1.24.36 1.99v2.915h20.429V4.588c0-.904-.24-1.597-.721-2.078-.481-.48-1.087-.721-1.818-.721-.327 0-.645.048-.952.144a1.95 1.95 0 0 0-.808.49c-.231.231-.414.53-.548.895-.135.366-.202.808-.202 1.327v.635h-2.136v-.779c0-.789.125-1.467.376-2.034a3.806 3.806 0 0 1 1.024-1.4A4.233 4.233 0 0 1 83.313.26 5.764 5.764 0 0 1 85.06 0c.654 0 1.27.101 1.847.303a4.326 4.326 0 0 1 1.5.88c.423.385.755.866.995 1.443.24.577.361 1.24.361 1.99v2.915h6.348c.211.673.399 1.442.562 2.308.164.865.294 1.702.39 2.51.673-.577 1.409-1.192 2.207-1.846a24.554 24.554 0 0 1 2.178-1.616l1.616.49c.077.404.154.88.231 1.428.077.549.15 1.111.216 1.688.068.577.125 1.14.174 1.688.048.549.081 1.025.1 1.429a51 51 0 0 1 2.179-1.616c.74-.52 1.419-1 2.034-1.443v-5.02H120V9.32h-2.914v8.194h-2.135V9.32h-4.819v14.859h-2.135v-9.29c-.673.46-1.36.956-2.063 1.485-.702.53-1.457 1.101-2.265 1.717-.173 1.423-.486 2.448-.938 3.073-.452.625-.937.937-1.457.937-.365 0-.678-.096-.937-.288-.26-.192-.438-.471-.534-.837l1.846-4.703c-.019-.904-.062-1.76-.13-2.568a41.51 41.51 0 0 0-.274-2.423c-.673.461-1.336 1-1.99 1.615a71.062 71.062 0 0 1-1.905 1.732c-.134 1.635-.428 2.86-.88 3.678-.452.818-.995 1.227-1.63 1.227-.365 0-.678-.097-.938-.289-.26-.192-.437-.471-.533-.837l1.673-4.27c0-.289-.024-.644-.072-1.068-.048-.423-.101-.86-.159-1.312-.057-.452-.12-.895-.187-1.328-.068-.432-.14-.803-.217-1.11h-4.645v14.859h-2.135V9.319H83.5c-.058 1.097-.313 2.097-.765 3.001-.452.904-.957 1.616-1.515 2.135a5.224 5.224 0 0 1 1.818 1.79c.443.73.664 1.605.664 2.625 0 .866-.183 1.64-.548 2.323a5.178 5.178 0 0 1-1.5 1.73c-.636.472-1.386.833-2.251 1.083-.866.25-1.799.375-2.799.375a9.56 9.56 0 0 1-2.352-.274c-.72-.183-1.35-.438-1.89-.765-.538-.327-.961-.716-1.269-1.168a2.631 2.631 0 0 1-.462-1.515c0-.827.303-1.525.91-2.092.605-.567 1.427-.851 2.466-.851.77 0 1.467.11 2.092.332a6.79 6.79 0 0 1 1.702.88c.51.365.962.774 1.356 1.226.395.452.736.909 1.025 1.37a3.434 3.434 0 0 0 1.024-1.183c.24-.461.36-1 .36-1.615 0-.404-.067-.784-.201-1.14a3.772 3.772 0 0 0-.534-.967 4.188 4.188 0 0 0-.736-.75 2.777 2.777 0 0 0-.837-.461c-1.115.307-2.366.461-3.75.461-1.078 0-1.92-.11-2.525-.332-.606-.22-.909-.62-.909-1.197 0-.212.034-.414.101-.606s.15-.365.245-.52h7.444c.385-.442.717-1.014.996-1.716a7.406 7.406 0 0 0 .505-2.178H67.199v14.859h-2.135V9.319H60.1Zm14.11 10.098c-.501 0-.866.125-1.097.375-.231.25-.347.53-.347.837 0 .539.347.995 1.04 1.37.692.376 1.605.563 2.74.563a7.76 7.76 0 0 0 2.049-.26c-.27-.365-.553-.72-.851-1.067a6.347 6.347 0 0 0-.981-.923 4.782 4.782 0 0 0-1.169-.65 3.811 3.811 0 0 0-1.385-.245Zm-44.78-5.453c-.559 0-1.035.077-1.43.23a2.928 2.928 0 0 0-.98.607 2.39 2.39 0 0 0-.577.85c-.125.318-.188.65-.188.996 0 .866.289 1.53.866 1.991.577.462 1.366.693 2.366.693.52 0 1.005-.073 1.457-.217a5.237 5.237 0 0 0 1.24-.577c.376-.24.708-.51.996-.808a7.08 7.08 0 0 0 .75-.909c-.577-.98-1.26-1.702-2.048-2.164-.789-.461-1.606-.692-2.453-.692Z"/></svg>
